X:1
T:The Stork
T:(Blue Eye'd Stranger)
M:4/4
O:English
R:Reel
K:G
L:1/4
P:(A2B3)3
%%MIDI program 22
P:A
|: G D D G/F/ | E/D/E/F/ G G/A/ | B>d c/B/A/G/ |:1 E>F G B/A/ \
                                               |:2 E>F G D :|
P:B
|: G/A/B/c/ d d | e/d/c/B/ A A | G/A/B/c/ d d | B>c d2 |
   G/A/B/c/ d d | e/d/c/B/ A G/A/ | B>d c/B/A/G/ |:1,2 E>F G D :| \
                                             |:3 E>F G B/A/ :|
